image/Apple logo.svg

<svg width="31" height="34" viewBox="0 0 31 34" fill="none" xmlns="http://www.w3.org/2000/svg">
<path fill-rule="evenodd" clip-rule="evenodd" d="M21.0999 5.42793C22.4293 3.99143 23.3255 1.99068 23.0803 0C21.1644 0.0680006 18.8465 1.14096 17.4728 2.57576C16.2392 3.84905 15.1623 5.88358 15.4518 7.83518C17.589 7.98306 19.7704 6.86611 21.0999 5.42793ZM25.8923 18.0627C25.9457 23.2085 30.9447 24.9203 31 24.9424C30.9594 25.0631 30.2016 27.3815 28.3668 29.7785C26.7792 31.8491 25.1326 33.9113 22.5381 33.9555C19.9898 33.998 19.1692 32.6058 16.254 32.6058C13.3405 32.6058 12.4296 33.9111 10.0177 33.9978C7.51366 34.0811 5.60517 31.7576 4.00647 29.6938C0.73531 25.4727 -1.76323 17.7653 1.59275 12.5633C3.25968 9.98106 6.23764 8.34332 9.47193 8.30252C11.9299 8.26002 14.2514 9.78007 15.7543 9.78007C17.2571 9.78007 20.0783 7.95257 23.0434 8.22117C24.2843 8.26707 27.7694 8.66813 30.0061 11.5938C29.8254 11.6941 25.848 13.7617 25.8923 18.0627Z" fill="black"/>
</svg>

<svg xmlns="http://www.w3.org/2000/svg" width="31" height="34" fill="none"><path fill="#000" fill-rule="evenodd" d="M21.1 5.428C22.43 3.99 23.326 1.99 23.08 0c-1.916.068-4.233 1.141-5.607 2.576-1.234 1.273-2.31 3.308-2.021 5.26 2.137.147 4.318-.97 5.648-2.408Zm4.792 12.635c.054 5.146 5.053 6.857 5.108 6.88-.04.12-.798 2.438-2.633 4.835-1.588 2.071-3.234 4.133-5.829 4.178-2.548.042-3.369-1.35-6.284-1.35-2.914 0-3.824 1.305-6.236 1.392-2.504.083-4.413-2.24-6.012-4.304-3.27-4.221-5.77-11.929-2.413-17.13C3.26 9.98 6.238 8.343 9.472 8.302c2.458-.043 4.78 1.477 6.282 1.477 1.503 0 4.324-1.827 7.29-1.559 1.24.046 4.725.447 6.962 3.373-.18.1-4.158 2.168-4.114 6.469Z" clip-rule="evenodd"/></svg>
